vendor/shopware/storefront/Resources/app/storefront/dist/assets/icon/solid/trending-up.svg

<svg xmlns="http://www.w3.org/2000/svg" width="16" height="16" viewBox="0 0 16 16">
  <path fill="#57D9A3" fill-rule="evenodd" d="M12.5857864,5 L10,5 C9.44771525,5 9,4.55228475 9,4 C9,3.44771525 9.44771525,3 10,3 L15,3 C15.5522847,3 16,3.44771525 16,4 L16,9 C16,9.55228475 15.5522847,10 15,10 C14.4477153,10 14,9.55228475 14,9 L14,6.41421356 L9.70710678,10.7071068 C9.31658249,11.0976311 8.68341751,11.0976311 8.29289322,10.7071068 L6,8.41421356 L1.70710678,12.7071068 C1.31658249,13.0976311 0.683417511,13.0976311 0.292893219,12.7071068 C-0.0976310729,12.3165825 -0.0976310729,11.6834175 0.292893219,11.2928932 L5.29289322,6.29289322 C5.68341751,5.90236893 6.31658249,5.90236893 6.70710678,6.29289322 L9,8.58578644 L12.5857864,5 Z"/>
</svg>

<svg xmlns="http://www.w3.org/2000/svg" width="16" height="16" viewBox="0 0 16 16"><path fill="#57D9A3" fill-rule="evenodd" d="M12.5858 5H10c-.5523 0-1-.4477-1-1s.4477-1 1-1h5c.5523 0 1 .4477 1 1v5c0 .5523-.4477 1-1 1s-1-.4477-1-1V6.4142l-4.2929 4.293c-.3905.3904-1.0237.3904-1.4142 0L6 8.4141l-4.2929 4.293c-.3905.3904-1.0237.3904-1.4142 0-.3905-.3906-.3905-1.0238 0-1.4143l5-5c.3905-.3905 1.0237-.3905 1.4142 0L9 8.5858 12.5858 5z"/></svg>
